X:1
T:Title
%%score { ( 1 3 ) | ( 2 4 ) }
L:1/8
Q:1/4=100
M:4/4
K:G
V:1 treble nm="Grand Piano"
V:3 treble 
V:2 bass 
V:4 bass 
V:1
 [B,D]>[B,E] [B,F]>[B,G] [Ec]2 [DB]2 | [EB]2 [EA]2 E4 | D>E F>G A2 B2 | G4 z4 | %4
w: Thoro~Harris) * * * * *||||
 [B,D]>[CE] [A,F]>[B,G] [Ec]2 [DB]2 | [EB]2 [EA]2 [CE]4 | [^CA]>[CG] [CF]>[CG] [CB]2 [CA]2 | %7
w: |||
 A4 d4 | d>e d>^c d2 B2 | B>c B>A B2 G2 | [EG]>[EA] [EG]>[G,CE] [G,D]-[G,CD][G,G]-[G,EG] | %11
w: ||||
[M:9/8] B2 A- A A2 c3 |[M:4/4] d>e d>^c d2 B2 | B>c B>_B =B2 G2 | %14
w: |||
 .[CEA]2 [G,CE]2 .[G,_B,G]2 [G,=B,D]2 | [DB]2 [CA]2 [B,G]4 |] %16
w: ||
V:2
 [G,,G,]>[G,,G,] [G,,G,]>[G,,G,] [G,,G,]2 [G,,G,]2 | [C,G,]2 [C,G,]2 [C,G,C]4 | %2
 [D,F,C]>[D,G,C] [D,A,C]>[D,G,B,] [D,G,C]2 [D,F,D]2 | z4 D4 | %4
 [G,,G,]>[G,,G,] [G,,G,]>[G,,G,] [G,,G,]2 [G,,G,]2 | [C,G,]2 [C,G,]2 [C,G,]4 | %6
 [A,,G,]>[A,,E,] [A,,A,]>[A,,A,] [A,,G,]2 [A,,E,]2 | [F,D]4[K:treble] [CF]4 | %8
 [G,B,G]>[G,CG] [G,B,G]>[G,_B,G] [G,=B,G]2[K:bass] [G,D]2 | %9
 [E,G,E]>[E,G,E] [E,G,E]>[E,G,E] [E,G,E]2 [E,B,E]2 | [C,C]>[C,C] [C,C]>C, G,,A,,B,,C, | %11
[M:9/8] [D,G,D]2 [D,G,^C]- [D,G,C] [F,=CD]2- [F,CD]3 | %12
[M:4/4][K:treble] [G,B,G]>[G,CG] [G,B,G]>[G,_B,G] [G,=B,G]2[K:bass] [G,D]2 | %13
 [E,G,E]>[E,G,E] [E,G,E]>[E,G,E] [E,G,E]2 [E,B,E]2 | z G C,2 z ^C G,,2 | %15
 [D,G,]2 [D,F,]2 [G,,G,]4 |] %16
V:3
 x8 | x8 | x8 | [G,B,]8 | x8 | x8 | x8 | x8 | x8 | x8 | z4 .B,2 .D2 |[M:9/8] x9 |[M:4/4] x8 | x8 | %14
 x8 | x8 |] %16
V:4
 x8 | x8 | x8 | G,,8 | x8 | x8 | x8 | D,8[K:treble] | x6[K:bass] x2 | x8 | x8 |[M:9/8] x9 | %12
[M:4/4][K:treble] x6[K:bass] x2 | x8 | C,2 z2 G,,2 z2 | x8 |] %16

